X: 38825
T: Sully's No. 37
R: hornpipe
M: 4/4
K: Adorian
AG|EcBc A2B/c/d|edea gede|cBcd e3d|cBcd ecdc|
AcGE A4-|A cAGE3D|cDEG cBAB|(3cBA dc A2|
AG|EcBG A2B/c/d|edea ged2|cBcd (3efg ed|cBcd e2dc|
AcGE A3G|A/B/cAGE3D|cDEG cBAB|(3cBA dc A2|
ce|aege a2zb|c'bag edcB|cedc AGEG|AcGE A3G|
Acde g4|abag edcB|cedc AGEG|(3cBA dc A2|
ce|a2ge a2zb|c'bag edcB|cedc AGEG|AcGE A3G|
Acde g4|azag edcB|cedc AGEG|(3cBA dc A2|

